X:1508
T:Rolling Down the Hill
R:reel
N:"collected from J. O'Neill"
B:"O'Neill's Dance Music of Ireland, 1508"
T: ag lia.tra.d sios an cnuic.
Z:transcribed by John B. Walsh, walsh@math.ubc.ca 8/23/96
M:C|
L:1/8
K:C
e2 cA e2 cA|BGEF G2 GB|AGAB cBcd|efge dgfg|
e2 cA Acec|dcBA G2 GB|AGAB cBcd|eaged2 cd||
efagf efagf|eabag eabag|efagf efagf|afge d2 d2||
efagf efagf|eabag eabag|edcB cdef|gfge dgfg||
